web/public/images/JME-CO3-link.svg

<svg viewBox="0 0 1166 250.5" xmlns="http://www.w3.org/2000/svg"><g fill="#fff"><path d="m75.11 84.18 6.75 50.25 6.87-50.25h19l-15 83.38h-21.5l-15.23-83.38zm-1.11 80.63h16l14-77.88h-12.39l-9.75 65.25-9.5-65.25h-12.63z"/><path d="m134.23 167.56h-19.23v-83.38h19.25zm-16.12-80.63v77.88h13v-77.88z"/><path d="m179.48 101.81h-14.87v14.75h13.62v17.37h-13.62v16.25h14.87v17.38h-33.87v-83.38h33.87zm-30.75-14.88v77.88h27.63v-11.88h-14.88v-21.75h13.63v-11.87h-13.63v-20.25h14.88v-12.13z"/><path d="m204.23 84.18 3.62 38.38 6.63-38.38h13.52l7.12 38.38 3.13-38.38h18.25l-9.63 83.38h-18.77l-7-37.88-6.5 37.88h-18.5l-10.25-83.38zm-5.23 80.63h12.87l9.25-52.88 9.75 52.88h13.13l9-77.88h-11.77l-5 56.5-10.88-56.5h-8.25l-10.25 56.5-5.62-56.5h-11.88z"/><path d="m953.54 111.18v-9.12a2.8 2.8 0 0 0 -3-3.13c-2.12 0-3.5 1.5-3.5 4v4.88c0 3.37 1.13 5.25 4 7 .88.5 1.38.75 2.5 1.37l8.25 5.25c5.5 3.38 5.5 3.5 7.25 5.75a15.06 15.06 0 0 1 3.25 9.5v11.5c0 13.75-8 21.5-22.37 21.5-13.5 0-21.63-7.12-21.63-19v-10.5h18.71v8c0 3.38 1 4.63 3.63 4.63 2.12 0 2.87-1.13 2.87-4.63v-6.12c0-2.38-.37-3.5-1.87-4.75a31.42 31.42 0 0 0 -4.63-3.38l-8.37-4.62c-7.38-4.13-10.38-8.5-10.38-15v-12.25c0-12.5 8.38-20 22.13-20 13.37 0 21.87 7.75 21.87 20v9.12zm15.63-9.12c0-10.63-7.25-17.25-18.75-17.25-6.88 0-11.63 1.75-14.88 5.5a18 18 0 0 0 -4.12 11.75v12.25c0 5.5 2.5 9 8.62 12.5l8.38 4.62c6.12 3.5 8.25 6.13 8.25 10.63v6.12c0 5.13-1.88 7.38-6.13 7.38s-6.62-2.5-6.62-7.38v-5.25h-12.5v7.75c0 10.25 6.75 16.25 18.37 16.25 12.63 0 19.38-6.5 19.38-18.75v-11.5a13.36 13.36 0 0 0 -2.5-7.75c-1.38-1.87-1.63-2.12-6.38-5.12l-8.29-5.13c-.37-.25-1.25-.75-2.5-1.5-4-2.25-5.62-5-5.62-9.37v-4.88c0-4 2.62-6.75 6.5-6.75s6.25 2.38 6.25 5.88v6.37h12.5z"/><path d="m1000 167.56h-19.21v-83.38h19.21zm-16.08-80.63v77.88h13v-77.88z"/><path d="m1052.29 84.18v17.75h-12.63v65.63h-18.87v-65.63h-12.88v-17.75zm-41.25 15h12.87v65.63h12.63v-65.63h12.62v-12.25h-38.16z"/><path d="m1093.91 101.81h-14.91v14.75h13.62v17.37h-13.62v16.25h14.87v17.38h-33.87v-83.38h33.87zm-30.75-14.88v77.88h27.63v-11.88h-14.88v-21.75h13.63v-11.87h-13.63v-20.25h14.88v-12.13z"/></g><path d="m9 9.27h1150v233.76h-1150z" fill="none" stroke="#fff" stroke-miterlimit="10" stroke-width="7"/><path d="m667 128.28v-44.28c10.3 0 20.24-.08 30.18.12 1.06 0 2.39 1.45 3.08 2.54 8 12.74 16 25.55 24 38.33.65 1 1.44 2 2.71 3.76v-44.75h9.56c9.33 0 18.67.16 28-.09a6.63 6.63 0 0 1 6.72 3.68c4.86 8.12 10 16.1 15.11 24.32 5.4-8.65 10.5-17 15.9-25.23a7 7 0 0 1 4.74-2.58c5-.34 10 .11 15-.18 5.57-.33 11.09-1.35 16.66-1.7 12.15-.76 23.47 1.4 32 11 10.15 11.36 6.18 26.25-9 34.19 6.72 2 12.32 5.07 14.93 12a20 20 0 0 1 -1.92 18.81c-5.2 7.85-13.31 11.93-22.33 13.15-11.68 1.58-23.39 1.42-33.85-5.52-7.71-5.11-12.29-12.08-13.62-22 7.75 0 15.16-.09 22.57.11.87 0 2 1.43 2.52 2.44 3.92 7.45 14.28 10.25 20.71 4.84 2.07-1.74 3.41-5.87 3-8.63-.61-4.51-4.67-6.47-9.11-6.75-3.3-.2-6.62 0-10.61 0v-16.99c3.57 0 6.69.06 9.81 0 5.47-.14 9.4-4.17 9.26-9.4-.14-5.49-3.37-8.49-9.3-8.62-8-.17-11.33 2.3-13.16 10-3.73 0-7.59.34-11.35-.1-3.94-.46-6.05 1.25-7.85 4.38-2.62 4.53-5.42 9-8.32 13.33a23.63 23.63 0 0 0 -4.16 14.81c.42 8.91.12 17.87.12 27.09h-25c0-5.92-.58-12 .12-18 1.41-12-2.12-22.11-9.44-31.54-4.45-5.73-7.81-12.3-12.52-18.23v68.09c-8.69 0-16.95.12-25.2-.14-1.15 0-2.52-1.75-3.3-3-9.88-15.66-19.67-31.38-29.5-47.07-.74-1.2-1.58-2.33-3.15-4.64v54.84c-10.9 0-21.35.09-31.79-.13-1.1 0-2.59-1.68-3.15-2.92-2-4.44-3.71-9-5.65-13.88-10.17 0-20.49-.1-30.8.13-1.28 0-3 1.54-3.69 2.82-2.19 4.36-2.82 10.85-6.24 12.89-4 2.37-10.25.94-15.52 1.09-2.95.08-5.91 0-9.57 0 3.92-9.85 7.6-19.07 11.21-28.13l-34.56 1.73v26.05h-24.06v-53.2l-.94-.22q-6.63 16.71-13.28 33.43c-2.3 5.76-4.46 11.59-7.1 17.2a6.36 6.36 0 0 1 -4.54 3c-5 .31-11 1.63-14.64-.63-3.28-2-4-8.27-5.74-12.66-5.37-13.31-10.71-26.62-16.75-39.79v52.84h-23.93v-16.57c-10.33 12.1-22.42 18.61-37.12 18.49s-27-6.46-36.32-18.62c-6.07 10.66-15.12 16.36-26.3 17.92-13.37 1.85-26.44.29-37.52-8.38-20.18-15.78-19.66-49.47-5.73-66.34 15.12-18.31 54.72-21.6 69.72 3.37 9.22-11.73 21.43-18 36.12-18s26.63 6.27 36.72 18.5v-16.35h37.66c2.84 7.21 5.78 14.76 8.77 22.29s6 15.06 9.22 23c5.63-14.21 11.15-28 16.51-41.83 1.13-2.9 2.78-3.88 5.93-3.86 19 .15 38-.3 57 .22 11.49.31 21.49 4.56 27.46 16.09 2-4.67 4.12-8.67 5.31-12.93.85-3.06 2.47-3.36 5-3.33 7.17.08 14.34.25 21.49-.07 3.26-.15 4.66 1.1 5.74 3.88 5.29 13.54 10.7 27 16.07 40.55zm-310.17-14.23c-3.16-8.64-6.66-11.92-12.72-12.15-10-.39-14.95 2-18.06 10.16-4 10.59-4.09 21.48.71 31.89 4 8.65 15.94 12 23.55 6.39 3.15-2.33 4.87-6.56 7.7-10.56h10.89v-25.73z" fill="#fff"/></svg>

<svg id="Layer_1" data-name="Layer 1" xmlns="http://www.w3.org/2000/svg" viewBox="0 0 1166 250.5"><defs><style>.cls-1{fill:#fff;}.cls-2{fill:none;stroke:#fff;stroke-miterlimit:10;stroke-width:7px;}</style></defs><path class="cls-1" d="M75.11,84.18l6.75,50.25,6.87-50.25h19l-15,83.38H71.23L56,84.18ZM74,164.81H90l14-77.88H91.61l-9.75,65.25-9.5-65.25H59.73Z"/><path class="cls-1" d="M134.23,167.56H115V84.18h19.25ZM118.11,86.93v77.88h13V86.93Z"/><path class="cls-1" d="M179.48,101.81H164.61v14.75h13.62v17.37H164.61v16.25h14.87v17.38H145.61V84.18h33.87ZM148.73,86.93v77.88h27.63V152.93H161.48V131.18h13.63V119.31H161.48V99.06h14.88V86.93Z"/><path class="cls-1" d="M204.23,84.18l3.62,38.38,6.63-38.38H228l7.12,38.38,3.13-38.38h18.25l-9.63,83.38H228.1l-7-37.88-6.5,37.88H196.1L185.85,84.18ZM199,164.81h12.87l9.25-52.88,9.75,52.88H244l9-77.88H241.23l-5,56.5-10.88-56.5H217.1l-10.25,56.5-5.62-56.5H189.35Z"/><path class="cls-1" d="M953.54,111.18v-9.12a2.8,2.8,0,0,0-3-3.13c-2.12,0-3.5,1.5-3.5,4v4.88c0,3.37,1.13,5.25,4,7,.88.5,1.38.75,2.5,1.37l8.25,5.25c5.5,3.38,5.5,3.5,7.25,5.75a15.06,15.06,0,0,1,3.25,9.5v11.5c0,13.75-8,21.5-22.37,21.5-13.5,0-21.63-7.12-21.63-19v-10.5H947v8c0,3.38,1,4.63,3.63,4.63,2.12,0,2.87-1.13,2.87-4.63v-6.12c0-2.38-.37-3.5-1.87-4.75a31.42,31.42,0,0,0-4.63-3.38l-8.37-4.62c-7.38-4.13-10.38-8.5-10.38-15V102.06c0-12.5,8.38-20,22.13-20,13.37,0,21.87,7.75,21.87,20v9.12Zm15.63-9.12c0-10.63-7.25-17.25-18.75-17.25-6.88,0-11.63,1.75-14.88,5.5a18,18,0,0,0-4.12,11.75v12.25c0,5.5,2.5,9,8.62,12.5l8.38,4.62c6.12,3.5,8.25,6.13,8.25,10.63v6.12c0,5.13-1.88,7.38-6.13,7.38s-6.62-2.5-6.62-7.38v-5.25h-12.5v7.75c0,10.25,6.75,16.25,18.37,16.25,12.63,0,19.38-6.5,19.38-18.75v-11.5a13.36,13.36,0,0,0-2.5-7.75c-1.38-1.87-1.63-2.12-6.38-5.12L952,118.68c-.37-.25-1.25-.75-2.5-1.5-4-2.25-5.62-5-5.62-9.37v-4.88c0-4,2.62-6.75,6.5-6.75s6.25,2.38,6.25,5.88v6.37h12.5Z"/><path class="cls-1" d="M1000,167.56H980.79V84.18H1000ZM983.92,86.93v77.88h13V86.93Z"/><path class="cls-1" d="M1052.29,84.18v17.75h-12.63v65.63h-18.87V101.93h-12.88V84.18Zm-41.25,15h12.87v65.63h12.63V99.18h12.62V86.93H1011Z"/><path class="cls-1" d="M1093.91,101.81H1079v14.75h13.62v17.37H1079v16.25h14.87v17.38H1060V84.18h33.87Zm-30.75-14.88v77.88h27.63V152.93h-14.88V131.18h13.63V119.31h-13.63V99.06h14.88V86.93Z"/><rect class="cls-2" x="9" y="9.27" width="1150" height="233.76"/><path class="cls-1" d="M667,128.28V84c10.3,0,20.24-.08,30.18.12,1.06,0,2.39,1.45,3.08,2.54,8,12.74,16,25.55,24,38.33.65,1,1.44,2,2.71,3.76V84h9.56c9.33,0,18.67.16,28-.09a6.63,6.63,0,0,1,6.72,3.68c4.86,8.12,10,16.1,15.11,24.32,5.4-8.65,10.5-17,15.9-25.23A7,7,0,0,1,807,84.1c5-.34,10,.11,15-.18,5.57-.33,11.09-1.35,16.66-1.7,12.15-.76,23.47,1.4,32,11,10.15,11.36,6.18,26.25-9,34.19,6.72,2,12.32,5.07,14.93,12a20,20,0,0,1-1.92,18.81c-5.2,7.85-13.31,11.93-22.33,13.15-11.68,1.58-23.39,1.42-33.85-5.52-7.71-5.11-12.29-12.08-13.62-22,7.75,0,15.16-.09,22.57.11.87,0,2,1.43,2.52,2.44,3.92,7.45,14.28,10.25,20.71,4.84,2.07-1.74,3.41-5.87,3-8.63-.61-4.51-4.67-6.47-9.11-6.75-3.3-.2-6.62,0-10.61,0V118.87c3.57,0,6.69.06,9.81,0,5.47-.14,9.4-4.17,9.26-9.4-.14-5.49-3.37-8.49-9.3-8.62-8-.17-11.33,2.3-13.16,10-3.73,0-7.59.34-11.35-.1-3.94-.46-6.05,1.25-7.85,4.38-2.62,4.53-5.42,9-8.32,13.33a23.63,23.63,0,0,0-4.16,14.81c.42,8.91.12,17.87.12,27.09H774c0-5.92-.58-12,.12-18,1.41-12-2.12-22.11-9.44-31.54-4.45-5.73-7.81-12.3-12.52-18.23v68.09c-8.69,0-16.95.12-25.2-.14-1.15,0-2.52-1.75-3.3-3-9.88-15.66-19.67-31.38-29.5-47.07-.74-1.2-1.58-2.33-3.15-4.64v54.84c-10.9,0-21.35.09-31.79-.13-1.1,0-2.59-1.68-3.15-2.92-2-4.44-3.71-9-5.65-13.88-10.17,0-20.49-.1-30.8.13-1.28,0-3,1.54-3.69,2.82-2.19,4.36-2.82,10.85-6.24,12.89-4,2.37-10.25.94-15.52,1.09-2.95.08-5.91,0-9.57,0,3.92-9.85,7.6-19.07,11.21-28.13l-34.56,1.73v26.05H537.19V117.12l-.94-.22q-6.63,16.71-13.28,33.43c-2.3,5.76-4.46,11.59-7.1,17.2a6.36,6.36,0,0,1-4.54,3c-5,.31-11,1.63-14.64-.63-3.28-2-4-8.27-5.74-12.66-5.37-13.31-10.71-26.62-16.75-39.79v52.84H450.27V153.72c-10.33,12.1-22.42,18.61-37.12,18.49s-27-6.46-36.32-18.62c-6.07,10.66-15.12,16.36-26.3,17.92-13.37,1.85-26.44.29-37.52-8.38-20.18-15.78-19.66-49.47-5.73-66.34C322.4,78.48,362,75.19,377,100.16c9.22-11.73,21.43-18,36.12-18s26.63,6.27,36.72,18.5V84.31h37.66c2.84,7.21,5.78,14.76,8.77,22.29s6,15.06,9.22,23c5.63-14.21,11.15-28,16.51-41.83,1.13-2.9,2.78-3.88,5.93-3.86,19,.15,38-.3,57,.22,11.49.31,21.49,4.56,27.46,16.09,2-4.67,4.12-8.67,5.31-12.93.85-3.06,2.47-3.36,5-3.33,7.17.08,14.34.25,21.49-.07,3.26-.15,4.66,1.1,5.74,3.88,5.29,13.54,10.7,27,16.07,40.55ZM356.83,114.05c-3.16-8.64-6.66-11.92-12.72-12.15-10-.39-14.95,2-18.06,10.16-4,10.59-4.09,21.48.71,31.89,4,8.65,15.94,12,23.55,6.39,3.15-2.33,4.87-6.56,7.7-10.56H368.9V114.05Z"/></svg>
